X: 25610
T: Marquis Of Queensberry
R: reel
M: 4/4
K: Cmajor
|ec c/c/c ~c2 ec|fedc Bagf|ec c/c/c ~c2 ac|1 BGAB c2 cf:|2 BGAB c2cG||
|:EFGF EcGc|BcdB cfeg|a2 ag fedc|1 BGAB ~c2cG:|2 BGAB ~c2||

